img/logo.svg

<svg width="234" height="29" viewBox="0 0 234 29" fill="none" xmlns="http://www.w3.org/2000/svg">
<path d="M8.964 28.396C8.052 28.396 7.068 28.336 6.012 28.216C4.98 28.096 3.876 27.916 2.7 27.676V2.26L3.42 3.448L0.144 2.584V0.352L7.02 0.0639992V11.944L6.48 11.296C7.392 10.384 8.364 9.688 9.396 9.208C10.452 8.704 11.544 8.452 12.672 8.452C14.04 8.452 15.252 8.824 16.308 9.568C17.388 10.288 18.228 11.368 18.828 12.808C19.452 14.248 19.764 16.012 19.764 18.1C19.764 19.636 19.572 21.028 19.188 22.276C18.804 23.524 18.192 24.604 17.352 25.516C16.512 26.428 15.408 27.136 14.04 27.64C12.672 28.144 10.98 28.396 8.964 28.396ZM9.756 25.3C11.628 25.3 13.008 24.7 13.896 23.5C14.808 22.3 15.264 20.608 15.264 18.424C15.264 17.032 15.084 15.832 14.724 14.824C14.364 13.816 13.872 13.036 13.248 12.484C12.624 11.932 11.88 11.656 11.016 11.656C10.32 11.656 9.588 11.848 8.82 12.232C8.052 12.592 7.272 13.156 6.48 13.924L7.02 12.556V25.876L6.48 24.796C7.704 25.132 8.796 25.3 9.756 25.3ZM38.0498 25.732L37.4018 24.868L40.6058 25.732V27.964L34.7018 28.252L34.1258 24.796L34.4138 24.904C33.4298 26.08 32.3498 26.956 31.1738 27.532C30.0218 28.108 28.8698 28.396 27.7178 28.396C26.2538 28.396 25.0178 27.928 24.0098 26.992C23.0018 26.032 22.4978 24.64 22.4978 22.816C22.4978 21.424 22.7978 20.332 23.3978 19.54C23.9978 18.748 24.8378 18.184 25.9178 17.848C27.0218 17.488 28.3538 17.308 29.9138 17.308H34.0538L33.7298 17.704V14.968C33.7298 13.792 33.4298 12.952 32.8298 12.448C32.2298 11.92 31.3778 11.656 30.2738 11.656C29.7218 11.656 29.1338 11.716 28.5098 11.836C27.9098 11.932 27.2498 12.1 26.5298 12.34L27.0338 11.8L26.6018 14.86H23.8298L23.5418 9.82C25.1018 9.364 26.5298 9.028 27.8258 8.812C29.1218 8.572 30.3218 8.452 31.4258 8.452C33.5378 8.452 35.1698 8.92 36.3218 9.856C37.4738 10.768 38.0498 12.208 38.0498 14.176V25.732ZM26.8538 22.42C26.8538 23.38 27.0818 24.088 27.5378 24.544C27.9938 25 28.5818 25.228 29.3018 25.228C29.9978 25.228 30.7538 25.012 31.5698 24.58C32.3858 24.148 33.1778 23.572 33.9458 22.852L33.7298 23.716V19.432L34.0538 19.792H30.5977C29.1818 19.792 28.1978 20.008 27.6458 20.44C27.1178 20.872 26.8538 21.532 26.8538 22.42ZM42.2497 28V25.768L45.2377 24.976L44.8057 25.66V11.26L45.3097 12.016L42.2497 11.188V8.956L48.1537 8.668L48.7297 12.124L48.1537 11.98C49.2337 10.852 50.2897 9.988 51.3217 9.388C52.3777 8.764 53.5177 8.452 54.7417 8.452C55.5097 8.452 56.3137 8.572 57.1537 8.812L56.8657 15.004H54.3457L53.8417 11.152L54.2377 12.016C54.0937 11.968 53.9377 11.932 53.7697 11.908C53.6017 11.884 53.4337 11.872 53.2657 11.872C52.4497 11.872 51.6457 12.124 50.8537 12.628C50.0857 13.108 49.3897 13.744 48.7657 14.536L49.1257 13.348V25.66L48.5857 24.976L52.2577 25.768V28H42.2497ZM73.5927 25.732L72.9447 24.868L76.1487 25.732V27.964L70.2447 28.252L69.6687 24.796L69.9567 24.904C68.9727 26.08 67.8927 26.956 66.7167 27.532C65.5647 28.108 64.4127 28.396 63.2607 28.396C61.7967 28.396 60.5607 27.928 59.5527 26.992C58.5447 26.032 58.0407 24.64 58.0407 22.816C58.0407 21.424 58.3407 20.332 58.9407 19.54C59.5407 18.748 60.3807 18.184 61.4607 17.848C62.5647 17.488 63.8967 17.308 65.4567 17.308H69.5967L69.2727 17.704V14.968C69.2727 13.792 68.9727 12.952 68.3727 12.448C67.7727 11.92 66.9207 11.656 65.8167 11.656C65.2647 11.656 64.6767 11.716 64.0527 11.836C63.4527 11.932 62.7927 12.1 62.0727 12.34L62.5767 11.8L62.1447 14.86H59.3727L59.0847 9.82C60.6447 9.364 62.0727 9.028 63.3687 8.812C64.6647 8.572 65.8647 8.452 66.9687 8.452C69.0807 8.452 70.7127 8.92 71.8647 9.856C73.0167 10.768 73.5927 12.208 73.5927 14.176V25.732ZM62.3967 22.42C62.3967 23.38 62.6247 24.088 63.0807 24.544C63.5367 25 64.1247 25.228 64.8447 25.228C65.5407 25.228 66.2967 25.012 67.1127 24.58C67.9287 24.148 68.7207 23.572 69.4887 22.852L69.2727 23.716V19.432L69.5967 19.792H66.1407C64.7247 19.792 63.7407 20.008 63.1887 20.44C62.6607 20.872 62.3967 21.532 62.3967 22.42ZM84.5966 28.396C83.0846 28.396 81.9206 27.94 81.1046 27.028C80.2886 26.092 79.8806 24.7 79.8806 22.852V11.152L80.4926 11.764H76.9286V9.424L80.5286 8.704L79.8806 9.46V4.6L84.2366 3.844V9.46L83.7326 8.848H89.2766L89.2046 11.764H83.7326L84.2366 11.152V22.276C84.2366 23.308 84.4166 24.052 84.7766 24.508C85.1366 24.964 85.6526 25.192 86.3246 25.192C86.7326 25.192 87.1766 25.12 87.6566 24.976C88.1366 24.832 88.6526 24.652 89.2046 24.436L90.0326 26.812C88.1366 27.868 86.3246 28.396 84.5966 28.396ZM107.061 25.732L106.413 24.868L109.617 25.732V27.964L103.713 28.252L103.137 24.796L103.425 24.904C102.441 26.08 101.361 26.956 100.185 27.532C99.0335 28.108 97.8815 28.396 96.7295 28.396C95.2655 28.396 94.0295 27.928 93.0215 26.992C92.0135 26.032 91.5095 24.64 91.5095 22.816C91.5095 21.424 91.8095 20.332 92.4095 19.54C93.0095 18.748 93.8495 18.184 94.9295 17.848C96.0335 17.488 97.3655 17.308 98.9255 17.308H103.065L102.741 17.704V14.968C102.741 13.792 102.441 12.952 101.841 12.448C101.241 11.92 100.389 11.656 99.2855 11.656C98.7335 11.656 98.1455 11.716 97.5215 11.836C96.9215 11.932 96.2615 12.1 95.5415 12.34L96.0455 11.8L95.6135 14.86H92.8415L92.5535 9.82C94.1135 9.364 95.5415 9.028 96.8375 8.812C98.1335 8.572 99.3335 8.452 100.437 8.452C102.549 8.452 104.181 8.92 105.333 9.856C106.485 10.768 107.061 12.208 107.061 14.176V25.732ZM95.8655 22.42C95.8655 23.38 96.0935 24.088 96.5495 24.544C97.0055 25 97.5935 25.228 98.3135 25.228C99.0095 25.228 99.7655 25.012 100.581 24.58C101.397 24.148 102.189 23.572 102.957 22.852L102.741 23.716V19.432L103.065 19.792H99.6095C98.1935 19.792 97.2095 20.008 96.6575 20.44C96.1295 20.872 95.8655 21.532 95.8655 22.42ZM119.382 28V25.768L122.37 24.976L121.938 25.66V11.26L122.442 12.016L119.382 11.188V8.956L125.286 8.668L125.862 12.124L125.286 11.98C126.366 10.852 127.422 9.988 128.454 9.388C129.51 8.764 130.65 8.452 131.874 8.452C132.642 8.452 133.446 8.572 134.286 8.812L133.998 15.004H131.478L130.974 11.152L131.37 12.016C131.226 11.968 131.07 11.932 130.902 11.908C130.734 11.884 130.566 11.872 130.398 11.872C129.582 11.872 128.778 12.124 127.986 12.628C127.218 13.108 126.522 13.744 125.898 14.536L126.258 13.348V25.66L125.718 24.976L129.39 25.768V28H119.382ZM142.536 25.408L142.176 25.012L145.056 25.768V28H135.66V25.768L138.54 25.012L138.216 25.408V11.584L138.504 11.908L135.66 11.188V8.956L142.536 8.704V25.408ZM140.196 5.536C139.404 5.536 138.768 5.308 138.288 4.852C137.808 4.396 137.568 3.76 137.568 2.944C137.568 2.056 137.82 1.396 138.324 0.963998C138.828 0.507998 139.464 0.279999 140.232 0.279999C140.976 0.279999 141.588 0.495999 142.068 0.927999C142.572 1.36 142.824 2.02 142.824 2.908C142.824 3.772 142.572 4.432 142.068 4.888C141.564 5.32 140.94 5.536 140.196 5.536ZM154.862 28.396C153.95 28.396 152.966 28.336 151.91 28.216C150.878 28.096 149.774 27.916 148.598 27.676V2.26L149.318 3.448L146.042 2.584V0.352L152.918 0.0639992V11.944L152.378 11.296C153.29 10.384 154.262 9.688 155.294 9.208C156.35 8.704 157.442 8.452 158.57 8.452C159.938 8.452 161.15 8.824 162.206 9.568C163.286 10.288 164.126 11.368 164.726 12.808C165.35 14.248 165.662 16.012 165.662 18.1C165.662 19.636 165.47 21.028 165.086 22.276C164.702 23.524 164.09 24.604 163.25 25.516C162.41 26.428 161.306 27.136 159.938 27.64C158.57 28.144 156.878 28.396 154.862 28.396ZM155.654 25.3C157.526 25.3 158.906 24.7 159.794 23.5C160.706 22.3 161.162 20.608 161.162 18.424C161.162 17.032 160.982 15.832 160.622 14.824C160.262 13.816 159.77 13.036 159.146 12.484C158.522 11.932 157.778 11.656 156.914 11.656C156.218 11.656 155.486 11.848 154.718 12.232C153.95 12.592 153.17 13.156 152.378 13.924L152.918 12.556V25.876L152.378 24.796C153.602 25.132 154.694 25.3 155.654 25.3ZM176.892 28.396C175.212 28.396 173.724 28.036 172.428 27.316C171.132 26.572 170.124 25.48 169.404 24.04C168.684 22.6 168.324 20.836 168.324 18.748C168.324 16.612 168.696 14.776 169.44 13.24C170.208 11.704 171.276 10.528 172.644 9.712C174.036 8.872 175.68 8.452 177.576 8.452C179.376 8.452 180.84 8.824 181.968 9.568C183.12 10.288 183.972 11.284 184.524 12.556C185.076 13.828 185.352 15.268 185.352 16.876C185.352 17.236 185.34 17.596 185.316 17.956C185.292 18.316 185.244 18.712 185.172 19.144H171.78V16.408H181.392L180.888 16.732C180.912 15.772 180.804 14.908 180.564 14.14C180.348 13.372 179.964 12.76 179.412 12.304C178.86 11.848 178.128 11.62 177.216 11.62C176.184 11.62 175.332 11.908 174.66 12.484C174.012 13.06 173.532 13.84 173.22 14.824C172.932 15.808 172.788 16.924 172.788 18.172C172.788 19.54 172.968 20.752 173.328 21.808C173.688 22.84 174.252 23.656 175.02 24.256C175.788 24.856 176.76 25.156 177.936 25.156C178.776 25.156 179.688 25 180.672 24.688C181.656 24.376 182.676 23.896 183.732 23.248L185.208 25.588C183.84 26.524 182.448 27.232 181.032 27.712C179.616 28.168 178.236 28.396 176.892 28.396ZM194.743 25.408L194.383 25.012L197.263 25.768V28H187.867V25.768L190.747 25.012L190.423 25.408V11.584L190.711 11.908L187.867 11.188V8.956L194.743 8.704V25.408ZM192.403 5.536C191.611 5.536 190.975 5.308 190.495 4.852C190.015 4.396 189.775 3.76 189.775 2.944C189.775 2.056 190.027 1.396 190.531 0.963998C191.035 0.507998 191.671 0.279999 192.439 0.279999C193.183 0.279999 193.795 0.495999 194.275 0.927999C194.779 1.36 195.031 2.02 195.031 2.908C195.031 3.772 194.779 4.432 194.275 4.888C193.771 5.32 193.147 5.536 192.403 5.536ZM199.047 28V25.768L202.035 24.976L201.603 25.66V11.26L202.107 12.016L199.047 11.188V8.956L204.951 8.668L205.527 12.124L204.951 11.98C206.031 10.852 207.087 9.988 208.119 9.388C209.175 8.764 210.315 8.452 211.539 8.452C212.307 8.452 213.111 8.572 213.951 8.812L213.663 15.004H211.143L210.639 11.152L211.035 12.016C210.891 11.968 210.735 11.932 210.567 11.908C210.399 11.884 210.231 11.872 210.063 11.872C209.247 11.872 208.443 12.124 207.651 12.628C206.883 13.108 206.187 13.744 205.563 14.536L205.923 13.348V25.66L205.383 24.976L209.055 25.768V28H199.047ZM224.405 8.452C227.189 8.452 229.349 9.292 230.885 10.972C232.445 12.628 233.225 14.992 233.225 18.064C233.225 20.2 232.841 22.036 232.073 23.572C231.329 25.108 230.249 26.296 228.833 27.136C227.441 27.976 225.761 28.396 223.793 28.396C221.033 28.396 218.885 27.568 217.349 25.912C215.837 24.256 215.081 21.88 215.081 18.784C215.081 16.648 215.453 14.812 216.197 13.276C216.941 11.74 218.009 10.552 219.401 9.712C220.793 8.872 222.461 8.452 224.405 8.452ZM224.189 11.548C222.677 11.548 221.525 12.136 220.733 13.312C219.965 14.488 219.581 16.24 219.581 18.568C219.581 20.896 219.953 22.6 220.697 23.68C221.441 24.76 222.545 25.3 224.009 25.3C225.065 25.3 225.941 25.036 226.637 24.508C227.333 23.956 227.861 23.164 228.221 22.132C228.581 21.076 228.761 19.792 228.761 18.28C228.761 16.024 228.365 14.344 227.573 13.24C226.805 12.112 225.677 11.548 224.189 11.548Z" fill="#141414"/>
<path d="M111.621 25.804C111.621 25.06 111.873 24.46 112.377 24.004C112.905 23.548 113.505 23.32 114.177 23.32C114.945 23.32 115.557 23.548 116.013 24.004C116.469 24.46 116.697 25.06 116.697 25.804C116.697 26.548 116.445 27.148 115.941 27.604C115.437 28.06 114.849 28.288 114.177 28.288C113.409 28.288 112.785 28.06 112.305 27.604C111.849 27.148 111.621 26.548 111.621 25.804Z" fill="#D2D904"/>
</svg>

<svg xmlns="http://www.w3.org/2000/svg" width="234" height="29" fill="none"><path fill="var(--cor-subtitulo-1)" d="M8.964 28.396c-.912 0-1.896-.06-2.952-.18a39.37 39.37 0 0 1-3.312-.54V2.26l.72 1.188-3.276-.864V.352L7.02.064v11.88l-.54-.648c.912-.912 1.884-1.608 2.916-2.088a7.522 7.522 0 0 1 3.276-.756c1.368 0 2.58.372 3.636 1.116 1.08.72 1.92 1.8 2.52 3.24.624 1.44.936 3.204.936 5.292 0 1.536-.192 2.928-.576 4.176-.384 1.248-.996 2.328-1.836 3.24-.84.912-1.944 1.62-3.312 2.124-1.368.504-3.06.756-5.076.756Zm.792-3.096c1.872 0 3.252-.6 4.14-1.8.912-1.2 1.368-2.892 1.368-5.076 0-1.392-.18-2.592-.54-3.6-.36-1.008-.852-1.788-1.476-2.34-.624-.552-1.368-.828-2.232-.828-.696 0-1.428.192-2.196.576-.768.36-1.548.924-2.34 1.692l.54-1.368v13.32l-.54-1.08c1.224.336 2.316.504 3.276.504Zm28.294.432-.648-.864 3.204.864v2.232l-5.904.288-.576-3.456.288.108c-.984 1.176-2.064 2.052-3.24 2.628-1.152.576-2.304.864-3.456.864-1.464 0-2.7-.468-3.708-1.404-1.008-.96-1.512-2.352-1.512-4.176 0-1.392.3-2.484.9-3.276.6-.792 1.44-1.356 2.52-1.692 1.104-.36 2.436-.54 3.996-.54h4.14l-.324.396v-2.736c0-1.176-.3-2.016-.9-2.52-.6-.528-1.452-.792-2.556-.792-.552 0-1.14.06-1.764.18-.6.096-1.26.264-1.98.504l.504-.54-.432 3.06H23.83l-.288-5.04c1.56-.456 2.988-.792 4.284-1.008 1.296-.24 2.496-.36 3.6-.36 2.112 0 3.744.468 4.896 1.404 1.152.912 1.728 2.352 1.728 4.32v11.556ZM26.854 22.42c0 .96.228 1.668.684 2.124.456.456 1.044.684 1.764.684.696 0 1.452-.216 2.268-.648.816-.432 1.608-1.008 2.376-1.728l-.216.864v-4.284l.324.36h-3.456c-1.416 0-2.4.216-2.952.648-.528.432-.792 1.092-.792 1.98ZM42.25 28v-2.232l2.988-.792-.432.684v-14.4l.504.756-3.06-.828V8.956l5.904-.288.576 3.456-.576-.144c1.08-1.128 2.136-1.992 3.168-2.592a6.606 6.606 0 0 1 3.42-.936c.768 0 1.572.12 2.412.36l-.288 6.192h-2.52l-.504-3.852.396.864a2.675 2.675 0 0 0-.468-.108 3.56 3.56 0 0 0-.504-.036c-.816 0-1.62.252-2.412.756-.768.48-1.464 1.116-2.088 1.908l.36-1.188V25.66l-.54-.684 3.672.792V28H42.25Zm31.343-2.268-.648-.864 3.204.864v2.232l-5.904.288-.576-3.456.288.108c-.984 1.176-2.064 2.052-3.24 2.628-1.152.576-2.304.864-3.456.864-1.464 0-2.7-.468-3.708-1.404-1.008-.96-1.512-2.352-1.512-4.176 0-1.392.3-2.484.9-3.276.6-.792 1.44-1.356 2.52-1.692 1.104-.36 2.436-.54 3.996-.54h4.14l-.324.396v-2.736c0-1.176-.3-2.016-.9-2.52-.6-.528-1.452-.792-2.556-.792-.552 0-1.14.06-1.764.18-.6.096-1.26.264-1.98.504l.504-.54-.432 3.06h-2.772l-.288-5.04c1.56-.456 2.988-.792 4.284-1.008 1.296-.24 2.496-.36 3.6-.36 2.112 0 3.744.468 4.896 1.404 1.152.912 1.728 2.352 1.728 4.32v11.556ZM62.397 22.42c0 .96.228 1.668.684 2.124.456.456 1.044.684 1.764.684.696 0 1.452-.216 2.268-.648.816-.432 1.608-1.008 2.376-1.728l-.216.864v-4.284l.324.36H66.14c-1.416 0-2.4.216-2.952.648-.528.432-.792 1.092-.792 1.98Zm22.2 5.976c-1.512 0-2.676-.456-3.492-1.368-.816-.936-1.224-2.328-1.224-4.176v-11.7l.612.612h-3.564v-2.34l3.6-.72-.648.756V4.6l4.356-.756V9.46l-.504-.612h5.544l-.072 2.916h-5.472l.504-.612v11.124c0 1.032.18 1.776.54 2.232.36.456.876.684 1.548.684.408 0 .852-.072 1.332-.216.48-.144.996-.324 1.548-.54l.828 2.376c-1.896 1.056-3.708 1.584-5.436 1.584Zm22.464-2.664-.648-.864 3.204.864v2.232l-5.904.288-.576-3.456.288.108c-.984 1.176-2.064 2.052-3.24 2.628-1.151.576-2.303.864-3.456.864-1.463 0-2.7-.468-3.707-1.404-1.009-.96-1.513-2.352-1.513-4.176 0-1.392.3-2.484.9-3.276.6-.792 1.44-1.356 2.52-1.692 1.105-.36 2.436-.54 3.996-.54h4.14l-.324.396v-2.736c0-1.176-.3-2.016-.9-2.52-.6-.528-1.452-.792-2.555-.792-.552 0-1.14.06-1.764.18-.6.096-1.26.264-1.98.504l.504-.54-.433 3.06h-2.772l-.287-5.04c1.56-.456 2.987-.792 4.284-1.008 1.296-.24 2.496-.36 3.599-.36 2.112 0 3.744.468 4.896 1.404 1.152.912 1.728 2.352 1.728 4.32v11.556ZM95.865 22.42c0 .96.229 1.668.684 2.124.456.456 1.044.684 1.764.684.697 0 1.453-.216 2.268-.648.816-.432 1.608-1.008 2.376-1.728l-.216.864v-4.284l.324.36h-3.456c-1.415 0-2.4.216-2.951.648-.529.432-.793 1.092-.793 1.98ZM119.382 28v-2.232l2.988-.792-.432.684v-14.4l.504.756-3.06-.828V8.956l5.904-.288.576 3.456-.576-.144c1.08-1.128 2.136-1.992 3.168-2.592a6.606 6.606 0 0 1 3.42-.936c.768 0 1.572.12 2.412.36l-.288 6.192h-2.52l-.504-3.852.396.864a2.675 2.675 0 0 0-.468-.108 3.56 3.56 0 0 0-.504-.036c-.816 0-1.62.252-2.412.756-.768.48-1.464 1.116-2.088 1.908l.36-1.188V25.66l-.54-.684 3.672.792V28h-10.008Zm23.154-2.592-.36-.396 2.88.756V28h-9.396v-2.232l2.88-.756-.324.396V11.584l.288.324-2.844-.72V8.956l6.876-.252v16.704Zm-2.34-19.872c-.792 0-1.428-.228-1.908-.684-.48-.456-.72-1.092-.72-1.908 0-.888.252-1.548.756-1.98.504-.456 1.14-.684 1.908-.684.744 0 1.356.216 1.836.648.504.432.756 1.092.756 1.98 0 .864-.252 1.524-.756 1.98-.504.432-1.128.648-1.872.648Zm14.666 22.86c-.912 0-1.896-.06-2.952-.18a39.37 39.37 0 0 1-3.312-.54V2.26l.72 1.188-3.276-.864V.352l6.876-.288v11.88l-.54-.648c.912-.912 1.884-1.608 2.916-2.088a7.522 7.522 0 0 1 3.276-.756c1.368 0 2.58.372 3.636 1.116 1.08.72 1.92 1.8 2.52 3.24.624 1.44.936 3.204.936 5.292 0 1.536-.192 2.928-.576 4.176-.384 1.248-.996 2.328-1.836 3.24-.84.912-1.944 1.62-3.312 2.124-1.368.504-3.06.756-5.076.756Zm.792-3.096c1.872 0 3.252-.6 4.14-1.8.912-1.2 1.368-2.892 1.368-5.076 0-1.392-.18-2.592-.54-3.6-.36-1.008-.852-1.788-1.476-2.34-.624-.552-1.368-.828-2.232-.828-.696 0-1.428.192-2.196.576-.768.36-1.548.924-2.34 1.692l.54-1.368v13.32l-.54-1.08c1.224.336 2.316.504 3.276.504Zm21.238 3.096c-1.68 0-3.168-.36-4.464-1.08-1.296-.744-2.304-1.836-3.024-3.276-.72-1.44-1.08-3.204-1.08-5.292 0-2.136.372-3.972 1.116-5.508.768-1.536 1.836-2.712 3.204-3.528 1.392-.84 3.036-1.26 4.932-1.26 1.8 0 3.264.372 4.392 1.116 1.152.72 2.004 1.716 2.556 2.988s.828 2.712.828 4.32c0 .36-.012.72-.036 1.08-.024.36-.072.756-.144 1.188H171.78v-2.736h9.612l-.504.324c.024-.96-.084-1.824-.324-2.592-.216-.768-.6-1.38-1.152-1.836-.552-.456-1.284-.684-2.196-.684-1.032 0-1.884.288-2.556.864-.648.576-1.128 1.356-1.44 2.34-.288.984-.432 2.1-.432 3.348 0 1.368.18 2.58.54 3.636.36 1.032.924 1.848 1.692 2.448.768.6 1.74.9 2.916.9.84 0 1.752-.156 2.736-.468.984-.312 2.004-.792 3.06-1.44l1.476 2.34c-1.368.936-2.76 1.644-4.176 2.124-1.416.456-2.796.684-4.14.684Zm17.851-2.988-.36-.396 2.88.756V28h-9.396v-2.232l2.88-.756-.324.396V11.584l.288.324-2.844-.72V8.956l6.876-.252v16.704Zm-2.34-19.872c-.792 0-1.428-.228-1.908-.684-.48-.456-.72-1.092-.72-1.908 0-.888.252-1.548.756-1.98.504-.456 1.14-.684 1.908-.684.744 0 1.356.216 1.836.648.504.432.756 1.092.756 1.98 0 .864-.252 1.524-.756 1.98-.504.432-1.128.648-1.872.648ZM199.047 28v-2.232l2.988-.792-.432.684v-14.4l.504.756-3.06-.828V8.956l5.904-.288.576 3.456-.576-.144c1.08-1.128 2.136-1.992 3.168-2.592a6.606 6.606 0 0 1 3.42-.936c.768 0 1.572.12 2.412.36l-.288 6.192h-2.52l-.504-3.852.396.864a2.675 2.675 0 0 0-.468-.108 3.56 3.56 0 0 0-.504-.036c-.816 0-1.62.252-2.412.756-.768.48-1.464 1.116-2.088 1.908l.36-1.188V25.66l-.54-.684 3.672.792V28h-10.008Zm25.358-19.548c2.784 0 4.944.84 6.48 2.52 1.56 1.656 2.34 4.02 2.34 7.092 0 2.136-.384 3.972-1.152 5.508-.744 1.536-1.824 2.724-3.24 3.564-1.392.84-3.072 1.26-5.04 1.26-2.76 0-4.908-.828-6.444-2.484-1.512-1.656-2.268-4.032-2.268-7.128 0-2.136.372-3.972 1.116-5.508.744-1.536 1.812-2.724 3.204-3.564 1.392-.84 3.06-1.26 5.004-1.26Zm-.216 3.096c-1.512 0-2.664.588-3.456 1.764-.768 1.176-1.152 2.928-1.152 5.256 0 2.328.372 4.032 1.116 5.112.744 1.08 1.848 1.62 3.312 1.62 1.056 0 1.932-.264 2.628-.792.696-.552 1.224-1.344 1.584-2.376.36-1.056.54-2.34.54-3.852 0-2.256-.396-3.936-1.188-5.04-.768-1.128-1.896-1.692-3.384-1.692Z"/><path fill="#D2D904" d="M111.621 25.804c0-.744.252-1.344.756-1.8.528-.456 1.128-.684 1.8-.684.768 0 1.38.228 1.836.684.456.456.684 1.056.684 1.8s-.252 1.344-.756 1.8a2.547 2.547 0 0 1-1.764.684c-.768 0-1.392-.228-1.872-.684-.456-.456-.684-1.056-.684-1.8Z"/></svg>
